static/img/kroki/3ac2adbd5aa3101ba5310f7add4107b4.svg

<?xml version="1.0" encoding="us-ascii" standalone="no"?><svg xmlns="http://www.w3.org/2000/svg" xmlns:xlink="http://www.w3.org/1999/xlink" contentStyleType="text/css" height="354px" preserveAspectRatio="none" style="width:394px;height:354px;" version="1.1" viewBox="0 0 394 354" width="394px" zoomAndPan="magnify"><defs/><g><!--class azure_authorization_role_assignment--><g id="elem_azure_authorization_role_assignment"><rect codeLine="23" fill="#3D176E" height="39.7891" id="azure_authorization_role_assignment" rx="2.5" ry="2.5" style="stroke:#000D19;stroke-width:0.5;" width="356" x="7" y="7"/><ellipse cx="22" cy="26.8945" fill="#ADD1B2" rx="11" ry="11" style="stroke:#181818;stroke-width:1.0;"/><path d="M24.9688,32.5352 Q24.3906,32.832 23.75,32.9727 Q23.1094,33.1289 22.4063,33.1289 Q19.9063,33.1289 18.5781,31.4883 Q17.2656,29.832 17.2656,26.707 Q17.2656,23.582 18.5781,21.9258 Q19.9063,20.2695 22.4063,20.2695 Q23.1094,20.2695 23.75,20.4258 Q24.4063,20.582 24.9688,20.8789 L24.9688,23.5977 Q24.3438,23.0195 23.75,22.7539 Q23.1563,22.4727 22.5313,22.4727 Q21.1875,22.4727 20.5,23.5508 Q19.8125,24.6133 19.8125,26.707 Q19.8125,28.8008 20.5,29.8789 Q21.1875,30.9414 22.5313,30.9414 Q23.1563,30.9414 23.75,30.6758 Q24.3438,30.3945 24.9688,29.8164 L24.9688,32.5352 Z " fill="#000000"/><text fill="#D9B8FF" font-family="Helvetica" font-size="17" lengthAdjust="spacing" textLength="314" x="41" y="32.7798">azure_authorization_role_assignment</text></g><!--class microsoft_graph_device--><g id="elem_microsoft_graph_device"><rect codeLine="26" fill="#3D176E" height="39.7891" id="microsoft_graph_device" rx="2.5" ry="2.5" style="stroke:#000D19;stroke-width:0.5;" width="239" x="65.5" y="206.58"/><ellipse cx="80.5" cy="226.4745" fill="#ADD1B2" rx="11" ry="11" style="stroke:#181818;stroke-width:1.0;"/><path d="M83.4688,232.1152 Q82.8906,232.412 82.25,232.5527 Q81.6094,232.7089 80.9063,232.7089 Q78.4063,232.7089 77.0781,231.0683 Q75.7656,229.412 75.7656,226.287 Q75.7656,223.162 77.0781,221.5058 Q78.4063,219.8495 80.9063,219.8495 Q81.6094,219.8495 82.25,220.0058 Q82.9063,220.162 83.4688,220.4589 L83.4688,223.1777 Q82.8438,222.5995 82.25,222.3339 Q81.6563,222.0527 81.0313,222.0527 Q79.6875,222.0527 79,223.1308 Q78.3125,224.1933 78.3125,226.287 Q78.3125,228.3808 79,229.4589 Q79.6875,230.5214 81.0313,230.5214 Q81.6563,230.5214 82.25,230.2558 Q82.8438,229.9745 83.4688,229.3964 L83.4688,232.1152 Z " fill="#000000"/><text fill="#D9B8FF" font-family="Helvetica" font-size="17" lengthAdjust="spacing" textLength="197" x="99.5" y="232.3598">microsoft_graph_device</text></g><!--class microsoft_graph_group--><g id="elem_microsoft_graph_group"><rect codeLine="29" fill="#3D176E" height="39.7891" id="microsoft_graph_group" rx="2.5" ry="2.5" style="stroke:#000D19;stroke-width:0.5;" width="234" x="153" y="106.79"/><ellipse cx="168" cy="126.6845" fill="#ADD1B2" rx="11" ry="11" style="stroke:#181818;stroke-width:1.0;"/><path d="M170.9688,132.3252 Q170.3906,132.622 169.75,132.7627 Q169.1094,132.9189 168.4063,132.9189 Q165.9063,132.9189 164.5781,131.2783 Q163.2656,129.622 163.2656,126.497 Q163.2656,123.372 164.5781,121.7158 Q165.9063,120.0595 168.4063,120.0595 Q169.1094,120.0595 169.75,120.2158 Q170.4063,120.372 170.9688,120.6689 L170.9688,123.3877 Q170.3438,122.8095 169.75,122.5439 Q169.1563,122.2627 168.5313,122.2627 Q167.1875,122.2627 166.5,123.3408 Q165.8125,124.4033 165.8125,126.497 Q165.8125,128.5908 166.5,129.6689 Q167.1875,130.7314 168.5313,130.7314 Q169.1563,130.7314 169.75,130.4658 Q170.3438,130.1845 170.9688,129.6064 L170.9688,132.3252 Z " fill="#000000"/><text fill="#D9B8FF" font-family="Helvetica" font-size="17" lengthAdjust="spacing" textLength="192" x="187" y="132.5698">microsoft_graph_group</text></g><!--class microsoft_graph_role--><g id="elem_microsoft_graph_role"><rect codeLine="32" fill="#3D176E" height="39.7891" id="microsoft_graph_role" rx="2.5" ry="2.5" style="stroke:#000D19;stroke-width:0.5;" width="218" x="76" y="306.37"/><ellipse cx="91" cy="326.2645" fill="#ADD1B2" rx="11" ry="11" style="stroke:#181818;stroke-width:1.0;"/><path d="M93.9688,331.9052 Q93.3906,332.202 92.75,332.3427 Q92.1094,332.4989 91.4063,332.4989 Q88.9063,332.4989 87.5781,330.8583 Q86.2656,329.202 86.2656,326.077 Q86.2656,322.952 87.5781,321.2958 Q88.9063,319.6395 91.4063,319.6395 Q92.1094,319.6395 92.75,319.7958 Q93.4063,319.952 93.9688,320.2489 L93.9688,322.9677 Q93.3438,322.3895 92.75,322.1239 Q92.1563,321.8427 91.5313,321.8427 Q90.1875,321.8427 89.5,322.9208 Q88.8125,323.9833 88.8125,326.077 Q88.8125,328.1708 89.5,329.2489 Q90.1875,330.3114 91.5313,330.3114 Q92.1563,330.3114 92.75,330.0458 Q93.3438,329.7645 93.9688,329.1864 L93.9688,331.9052 Z " fill="#000000"/><text fill="#D9B8FF" font-family="Helvetica" font-size="17" lengthAdjust="spacing" textLength="176" x="110" y="332.1498">microsoft_graph_role</text></g><!--link azure_authorization_role_assignment to microsoft_graph_device--><g id="link_azure_authorization_role_assignment_microsoft_graph_device"><path codeLine="35" d="M168.4,47.11 C156.51,62.21 141.51,84.37 135,106.79 C130.07,123.78 130.07,129.6 135,146.58 C141.51,169.01 152.7966,186.4572 164.6866,201.5472 " fill="none" id="azure_authorization_role_assignment-to-microsoft_graph_device" style="stroke:#1A83AF;stroke-width:2.0;"/><polygon fill="#1A83AF" points="168.4,206.26,165.9718,196.7152,165.3055,202.3327,159.688,201.6664,168.4,206.26" style="stroke:#1A83AF;stroke-width:2.0;"/></g><!--link azure_authorization_role_assignment to microsoft_graph_group--><g id="link_azure_authorization_role_assignment_microsoft_graph_group"><path codeLine="36" d="M201.79,47.22 C216.69,64.36 234.4138,84.7516 249.3038,101.8816 " fill="none" id="azure_authorization_role_assignment-to-microsoft_graph_group" style="stroke:#1A83AF;stroke-width:2.0;"/><polygon fill="#1A83AF" points="253.24,106.41,250.3546,96.9933,249.9598,102.6364,244.3168,102.2416,253.24,106.41" style="stroke:#1A83AF;stroke-width:2.0;"/></g><!--link microsoft_graph_device to microsoft_graph_role--><g id="link_microsoft_graph_device_microsoft_graph_role"><path codeLine="37" d="M185,246.8 C185,263.94 185,282.85 185,299.99 " fill="none" id="microsoft_graph_device-to-microsoft_graph_role" style="stroke:#1A83AF;stroke-width:2.0;"/><polygon fill="#1A83AF" points="185,305.99,189,296.99,185,300.99,181,296.99,185,305.99" style="stroke:#1A83AF;stroke-width:2.0;"/></g><!--link microsoft_graph_group to microsoft_graph_device--><g id="link_microsoft_graph_group_microsoft_graph_device"><path codeLine="38" d="M253.21,147.01 C238.31,164.15 220.5849,184.5305 205.6949,201.6705 " fill="none" id="microsoft_graph_group-to-microsoft_graph_device" style="stroke:#1A83AF;stroke-width:2.0;"/><polygon fill="#1A83AF" points="201.76,206.2,210.682,202.029,205.0391,202.4254,204.6427,196.7825,201.76,206.2" style="stroke:#1A83AF;stroke-width:2.0;"/></g><!--link microsoft_graph_role to microsoft_graph_role--><g id="link_microsoft_graph_role_microsoft_graph_role"><path codeLine="39" d="M294.26,308.52 C314.64,310.7 329,316.62 329,326.27 C329,335.91 320.6057,341.1889 300.2257,343.3789 " fill="none" id="microsoft_graph_role-to-microsoft_graph_role" style="stroke:#1A83AF;stroke-width:2.0;"/><polygon fill="#1A83AF" points="294.26,344.02,303.6359,347.0355,299.2314,343.4858,302.7811,339.0813,294.26,344.02" style="stroke:#1A83AF;stroke-width:2.0;"/></g><!--SRC=[fP9HQy8m4CVV-oa2FWjsigalWoh8zY9ZxcsCSZQNDjWavP8gElRTPzMDhBLLsElTB_V_tP5CScIe2hTZ2jKAoGPsBNK118f5H6OxCxaXrXC2n71KRywDTbU11IXaJvXlqCa4wiHR9fErHclPdTUQGh9EoPIQdyOx0cqFBTJEesOvM1ivHt9LElHa-6Gr5g9EreVsXZmSFM03CyIHpiXWCE3Xf8vSZUhS-vTOoZsoq3_QmZXiQ3OYZbIdPKLuaer5V_gjZY_0kTGfk_TghoSdqaX_wiiCkDbMj83S-Z7M8Q5nkm9dZQrmCkPYT15-ReE3f3eTWtr964FfCaDo3quQ7PF93oLhPQhLuPUmpo3uEkDA9cIi4IvE2OeivhYH2NOHLNRH1LHff_ujBlttNXYDXz7ye__OOlF_EKVde6NNpfTLJ73v1BUONxpDzS1l]--></g></svg>

<svg xmlns="http://www.w3.org/2000/svg" width="394" height="354" viewBox="0 0 394 354"><rect width="356" height="39.789" x="7" y="7" fill="#3D176E" rx="2.5" ry="2.5" style="stroke:#000d19;stroke-width:.5"/><circle cx="22" cy="26.895" r="11" fill="#ADD1B2" style="stroke:#181818;stroke-width:1"/><path d="M24.969 32.535q-.578.297-1.219.438-.64.156-1.344.156-2.5 0-3.828-1.64-1.312-1.657-1.312-4.782t1.312-4.781q1.328-1.656 3.828-1.656.703 0 1.344.156.656.156 1.219.453v2.719q-.625-.578-1.219-.844-.594-.281-1.219-.281-1.343 0-2.031 1.078-.687 1.062-.687 3.156t.687 3.172q.688 1.062 2.031 1.062.625 0 1.219-.265.594-.281 1.219-.86z"/><text x="41" y="32.78" fill="#D9B8FF" font-family="Helvetica" font-size="17" textLength="314">azure_authorization_role_assignment</text><rect width="239" height="39.789" x="65.5" y="206.58" fill="#3D176E" rx="2.5" ry="2.5" style="stroke:#000d19;stroke-width:.5"/><circle cx="80.5" cy="226.475" r="11" fill="#ADD1B2" style="stroke:#181818;stroke-width:1"/><path d="M83.469 232.115q-.578.297-1.219.438-.64.156-1.344.156-2.5 0-3.828-1.64-1.312-1.657-1.312-4.782t1.312-4.781q1.328-1.656 3.828-1.656.703 0 1.344.156.656.156 1.219.453v2.719q-.625-.578-1.219-.844-.594-.281-1.219-.281-1.344 0-2.031 1.078-.687 1.062-.687 3.156t.687 3.172q.688 1.062 2.031 1.062.625 0 1.219-.265.594-.281 1.219-.86z"/><text x="99.5" y="232.36" fill="#D9B8FF" font-family="Helvetica" font-size="17" textLength="197">microsoft_graph_device</text><rect width="234" height="39.789" x="153" y="106.79" fill="#3D176E" rx="2.5" ry="2.5" style="stroke:#000d19;stroke-width:.5"/><circle cx="168" cy="126.684" r="11" fill="#ADD1B2" style="stroke:#181818;stroke-width:1"/><path d="M170.969 132.325q-.578.297-1.219.438-.64.156-1.344.156-2.5 0-3.828-1.64-1.312-1.657-1.312-4.782t1.312-4.781q1.328-1.656 3.828-1.656.703 0 1.344.156.656.156 1.219.453v2.719q-.625-.579-1.219-.844-.594-.281-1.219-.281-1.344 0-2.031 1.078-.687 1.062-.687 3.156t.687 3.172q.688 1.062 2.031 1.062.625 0 1.219-.265.594-.281 1.219-.86z"/><text x="187" y="132.57" fill="#D9B8FF" font-family="Helvetica" font-size="17" textLength="192">microsoft_graph_group</text><rect width="218" height="39.789" x="76" y="306.37" fill="#3D176E" rx="2.5" ry="2.5" style="stroke:#000d19;stroke-width:.5"/><circle cx="91" cy="326.264" r="11" fill="#ADD1B2" style="stroke:#181818;stroke-width:1"/><path d="M93.969 331.905q-.578.297-1.219.438-.64.156-1.344.156-2.5 0-3.828-1.64-1.312-1.657-1.312-4.782t1.312-4.781q1.328-1.656 3.828-1.656.703 0 1.344.156.656.156 1.219.453v2.719q-.625-.579-1.219-.844-.594-.281-1.219-.281-1.344 0-2.031 1.078-.687 1.062-.687 3.156t.687 3.172q.688 1.062 2.031 1.062.625 0 1.219-.265.594-.281 1.219-.86z"/><text x="110" y="332.15" fill="#D9B8FF" font-family="Helvetica" font-size="17" textLength="176">microsoft_graph_role</text><path fill="none" d="M168.4 47.11c-11.89 15.1-26.89 37.26-33.4 59.68-4.93 16.99-4.93 22.81 0 39.79 6.51 22.43 17.797 39.877 29.687 54.967" style="stroke:#1a83af;stroke-width:2"/><path fill="#1A83AF" d="m168.4 206.26-2.428-9.545-.667 5.618-5.617-.667z" style="stroke:#1a83af;stroke-width:2"/><path fill="none" d="M201.79 47.22c14.9 17.14 32.624 37.532 47.514 54.662" style="stroke:#1a83af;stroke-width:2"/><path fill="#1A83AF" d="m253.24 106.41-2.885-9.417-.395 5.643-5.643-.394z" style="stroke:#1a83af;stroke-width:2"/><path fill="none" d="M185 246.8v53.19" style="stroke:#1a83af;stroke-width:2"/><path fill="#1A83AF" d="m185 305.99 4-9-4 4-4-4z" style="stroke:#1a83af;stroke-width:2"/><path fill="none" d="M253.21 147.01c-14.9 17.14-32.625 37.52-47.515 54.66" style="stroke:#1a83af;stroke-width:2"/><path fill="#1A83AF" d="m201.76 206.2 8.922-4.171-5.643.396-.396-5.643z" style="stroke:#1a83af;stroke-width:2"/><path fill="none" d="M294.26 308.52c20.38 2.18 34.74 8.1 34.74 17.75 0 9.64-8.394 14.919-28.774 17.109" style="stroke:#1a83af;stroke-width:2"/><path fill="#1A83AF" d="m294.26 344.02 9.376 3.016-4.405-3.55 3.55-4.405z" style="stroke:#1a83af;stroke-width:2"/></svg>
